X:1
T: Lady Boswell of Auchinleck
C:Nathaniel Gow
R:Strathspey
Q: 128
K:Bb
M:4/4
L:1/16
|:B,3F D3B GFED C4|B,3F D3d B3F Bd3|f3d B3d B2D2 C4|B,3D F2Bc d3B, DB3|
B,3F D3B GFED C4|B,3F D3d B3F Bd3|f3d B3d B2D2 C3D|B,3D F2Bc dcBA B3g|
f3b d3f edcB c4|f3b d3b B3b db3|f3b d3f edcB c3d|B2cd G3B FGEF D3g|
f3b d3f edcB c3g|f3b d3g F3d e3c|d3B c3A B2D2 C4|B,3D F2Bc d3B, DB3:|
